assets/images/services-img1.svg

<svg width="114" height="114" viewBox="0 0 114 114" fill="none" xmlns="http://www.w3.org/2000/svg">
<path fill-rule="evenodd" clip-rule="evenodd" d="M90.1721 33.3848C90.097 33.2978 88.3266 27.0662 87.3235 25.033C83.5184 17.3194 77.5312 11.0218 70.812 7.66633C64.683 4.60486 60.6729 3.76031 52.3295 3.77509C43.1661 3.79045 37.3189 5.17075 29.0864 9.26047C24.2036 11.6861 22.4915 12.9106 18.9994 16.4748C12.1732 23.4417 9.47533 29.9798 9.49325 39.5128C9.51005 48.1558 11.6669 55.7261 16.0108 62.3865C17.1954 64.203 21.5741 69.2738 25.741 73.6553C30.6518 78.8182 33.7652 82.5912 34.5908 84.3775C35.9865 87.3992 36.7409 92.4865 36.4788 97.1051C36.322 99.8652 36.1427 100.199 33.9584 101.798C29.5635 105.017 27.624 109.805 30.5437 110.229C32.1236 110.458 34.9907 107.095 35.8946 103.954C36.2788 102.619 36.8574 101.328 37.18 101.084C37.5032 100.84 39.5318 100.813 41.688 101.022C46.6766 101.506 49.6142 101.396 51.868 100.641C54.3065 99.8236 57.4508 96.14 58.2444 93.1706C60.0025 86.5899 55.9991 69.8204 49.2563 55.5203L47.1393 51.0307L49.034 48.5095C50.0763 47.1236 50.9293 45.7774 50.9293 45.518C50.9293 45.2593 52.2527 45.5601 53.8697 46.1863C57.6804 47.661 61.5802 47.3647 63.6027 45.4469C66.1829 42.9986 66.7716 41.1616 66.4753 36.4764C66.2076 32.2343 66.2193 32.1893 68.0536 30.4325C69.2225 29.3133 70.1404 27.7009 70.5504 26.0465L71.1995 23.4303L73.2281 24.2908C74.3438 24.7646 78.1629 26.1352 81.7155 27.3375L88.1743 29.5231L89.1466 32.4942C90.3877 36.2853 91.6019 37.5615 97.2755 41.0427C103.024 44.5688 105.817 47.1764 105.817 49.0151C105.817 49.7761 104.712 51.9395 103.362 53.8237C97.9252 61.4106 97.8115 63.0969 102.176 71.3599C105.76 78.1443 106.056 80.2855 103.786 83.0245C102.193 84.9468 99.7824 86.3539 94.9125 88.2039C88.9225 90.48 86.778 93.488 85.0356 102.061C84.0174 107.073 83.6892 110.252 84.2493 109.683C84.401 109.529 84.9046 107.194 85.3683 104.495C86.4464 98.2158 88.0511 93.8838 89.9962 92.0002C90.8425 91.1807 93.6333 89.6133 96.1979 88.5173C101.845 86.1042 104.555 84.0949 105.605 81.5419C106.639 79.0309 106.28 77.7035 102.66 70.6393C100.837 67.0814 99.6558 64.0529 99.6558 62.9365C99.6558 61.1717 100.663 59.2585 105.117 52.5686C106.117 51.0648 106.937 49.3922 106.937 48.8519C106.937 47.0911 104.223 44.5341 98.6673 41.0621C92.7691 37.375 91.0967 35.8644 90.1721 33.3848ZM71.2678 8.6599C69.3625 7.64017 65.8564 6.30024 63.4772 5.68204C55.8333 3.69717 44.2537 4.31424 35.5905 7.16869C25.8178 10.3888 16.94 17.7095 13.2362 25.6017C9.42884 33.7141 9.11857 42.8285 12.32 52.5316C14.7714 59.962 17.1993 63.5791 25.7377 72.5218C29.9192 76.901 33.8896 81.4008 34.5611 82.5212C36.5398 85.8227 37.6684 91.291 37.3245 95.917L37.0232 99.976L42.83 100.378C49.3908 100.832 51.9262 100.295 54.4986 97.9036C55.3836 97.0812 56.455 95.5849 56.879 94.5782C57.9011 92.1532 57.8596 85.1629 56.7927 79.917C55.2749 72.4547 51.5935 62.0089 47.7721 54.3225L46.3585 51.4789H42.8883C38.4895 51.4789 34.6059 49.5702 32.0318 46.1431C29.9141 43.3233 29.726 41.4454 31.3922 39.7534C32.3505 38.7803 33.0472 38.6034 35.0288 38.8304C38.2643 39.2006 40.6267 41.111 43.9423 46.0384C46.5669 49.9388 46.6755 50.0252 47.7441 49.0601C48.3485 48.5135 49.2026 47.2043 49.6417 46.1505C50.3776 44.384 50.3502 44.1383 49.2927 42.9952C47.5716 41.1348 47.2418 38.5909 48.5635 37.3761C50.7898 35.3298 52.5137 37.7805 51.8433 42.0386C51.5118 44.1423 51.5683 44.2333 53.8579 45.2814C55.1539 45.8752 57.4385 46.3603 58.935 46.3603C61.3517 46.3603 61.867 46.1271 63.5315 44.2828C65.6581 41.9265 66.4042 38.6427 65.6408 34.9994C65.2045 32.9184 64.981 32.7006 62.8438 32.2712C60.3178 31.7639 56.8879 28.4926 57.1993 26.8871C57.7986 23.7994 62.4405 25.1718 64.3666 29.0056C65.3887 31.0399 65.6581 31.2384 66.6584 30.6947C68.286 29.8103 69.9674 26.75 69.9696 24.6679C69.9718 22.9247 69.8738 22.8565 66.0043 21.8931C57.1786 19.6972 50.3154 21.9118 41.128 29.9195C38.3556 32.3361 35.0685 34.7731 33.8235 35.335C26.6881 38.554 20.669 36.4269 18.9893 30.093C17.7224 25.3151 21.7555 17.7704 26.132 16.7302C26.9866 16.5271 28.6943 15.3823 29.9265 14.1857C31.1586 12.9891 33.679 11.3005 35.5272 10.4332C38.7891 8.90275 41.7833 8.57629 48.689 8.99943C49.4591 9.04663 51.7705 8.94142 53.8254 8.76625C58.2831 8.3852 61.2207 9.46863 64.9132 12.8565C67.3333 15.0769 70.5174 20.0657 70.5269 21.6531C70.5302 22.2753 72.7352 23.3223 77.9529 25.1792C86.7069 28.2941 87.8942 28.6473 87.8942 28.1405C87.8942 27.9301 86.9555 25.9299 85.808 23.6942C83.1431 18.504 76.1495 11.2726 71.2678 8.6599ZM48.1776 10.9928C48.5507 10.6141 48.5798 10.2449 48.2538 10.0402C47.2171 9.38958 41.6595 9.16834 39.5855 9.69498C36.6014 10.4531 32.397 12.7263 30.8355 14.4262L29.5047 15.8754L31.1155 16.2786C34.6804 17.1709 36.8652 20.0976 36.1439 23.0152C34.9526 27.8368 27.9662 24.6036 27.9662 19.2308C27.9662 17.1755 27.8643 17.0259 26.706 17.3831C20.9412 19.1609 17.6418 27.6537 20.8421 32.4765C22.5296 35.0193 24.2428 35.8229 27.9662 35.8178C32.1354 35.8127 34.5897 34.5575 40.5679 29.3758C49.3952 21.7242 56.6185 19.0767 64.2182 20.7084C66.3045 21.156 68.4574 21.702 69.0023 21.9209C69.8716 22.2701 69.9242 22.1365 69.4347 20.8284C66.9306 14.1402 60.4052 9.10862 54.236 9.10862C50.5669 9.10862 50.1659 9.55849 52.0914 11.5138C53.3875 12.8292 53.7493 13.659 53.6199 15.0126C53.4832 16.4355 53.1668 16.82 52.0186 16.9559C48.9864 17.3142 46.2045 12.9965 48.1776 10.9928ZM52.9478 15.7002C53.3427 14.6549 51.7873 11.6213 50.624 11.168C50.5597 11.1429 50.4992 11.1191 50.4424 11.0968C49.9729 10.9123 49.7476 10.8237 49.5531 10.8696C49.3736 10.912 49.2203 11.0688 48.9255 11.3702C48.8866 11.41 48.8452 11.4524 48.801 11.4973C47.7156 12.5995 48.0225 14.06 49.6047 15.3231C51.3236 16.6966 52.5205 16.8314 52.9478 15.7002ZM33.0747 24.4643C36.1797 24.4643 36.3741 20.0271 33.3513 18.1554C32.3919 17.5611 30.9139 17.0742 30.0665 17.0731C28.6859 17.0708 28.5263 17.2727 28.5263 19.0176C28.5263 21.6809 30.8506 24.4643 33.0747 24.4643ZM64.3711 31.3226C64.3711 29.8803 62.5822 27.2801 61.0291 26.4645C59.1534 25.4795 59.0896 25.467 58.5838 25.9811C57.7981 26.7784 58.2696 28.2896 59.7505 29.7205C61.4716 31.3829 64.3711 32.3884 64.3711 31.3226ZM50.5008 43.2323C51.0032 43.2323 51.4412 40.0395 51.1135 38.7672C50.9321 38.0626 50.3518 37.545 49.7436 37.545C48.9237 37.545 48.6929 37.9557 48.7069 39.3934C48.7226 41.0484 49.7436 43.2323 50.5008 43.2323ZM43.38 46.5321C42.0039 44.4488 40.0123 42.0744 38.9549 41.2554C33.9506 37.379 28.9335 40.292 32.1169 45.2257C34.4177 48.7911 41.5716 51.9816 44.6251 50.8038C45.8657 50.3249 45.85 50.2703 43.38 46.5321ZM30.6725 109.774C31.7338 109.774 34.0839 106.744 34.8927 104.334C35.3581 102.947 35.5653 101.818 35.353 101.827C34.6501 101.855 31.4628 104.913 30.4849 106.499C29.5523 108.012 29.6532 109.774 30.6725 109.774Z" fill="white" stroke="white" stroke-width="1.11418"/>
</svg>

<svg width="114" height="114" fill="none" xmlns="http://www.w3.org/2000/svg"><path fill-rule="evenodd" clip-rule="evenodd" d="M90.172 33.385c-.075-.087-1.845-6.319-2.849-8.352-3.805-7.714-9.792-14.011-16.511-17.367-6.129-3.061-10.14-3.906-18.482-3.89-9.164.014-15.011 1.395-23.244 5.484-4.882 2.426-6.595 3.65-10.087 7.215-6.826 6.967-9.524 13.505-9.506 23.038.017 8.643 2.174 16.213 6.518 22.873 1.184 1.817 5.563 6.888 9.73 11.27 4.91 5.162 8.024 8.935 8.85 10.721 1.395 3.022 2.15 8.11 1.888 12.728-.157 2.76-.336 3.094-2.52 4.693-4.396 3.219-6.335 8.007-3.415 8.431 1.58.229 4.447-3.134 5.35-6.275.385-1.335.963-2.626 1.286-2.87.323-.244 2.352-.271 4.508-.062 4.989.484 7.926.374 10.18-.381 2.438-.817 5.583-4.501 6.376-7.47C60.002 86.59 56 69.82 49.256 55.52l-2.117-4.49 1.895-2.521c1.042-1.386 1.895-2.733 1.895-2.992 0-.259 1.324.042 2.94.668 3.811 1.475 7.711 1.179 9.734-.74 2.58-2.447 3.169-4.284 2.872-8.97-.267-4.242-.256-4.287 1.579-6.043 1.168-1.12 2.086-2.732 2.496-4.386l.65-2.617 2.028.86c1.116.475 4.935 1.845 8.488 3.047l6.458 2.186.973 2.971c1.24 3.791 2.455 5.068 8.128 8.549 5.749 3.526 8.542 6.133 8.542 7.972 0 .761-1.105 2.925-2.455 4.809-5.437 7.587-5.55 9.273-1.186 17.536 3.584 6.784 3.88 8.925 1.61 11.665-1.593 1.922-4.004 3.329-8.874 5.179-5.99 2.276-8.134 5.284-9.876 13.857-1.019 5.012-1.347 8.191-.787 7.622.152-.154.656-2.489 1.12-5.188 1.077-6.28 2.682-10.611 4.627-12.495.847-.82 3.637-2.387 6.202-3.483 5.647-2.413 8.357-4.422 9.407-6.975 1.034-2.511.675-3.838-2.945-10.903-1.823-3.558-3.004-6.586-3.004-7.702 0-1.765 1.007-3.678 5.461-10.368 1-1.504 1.82-3.177 1.82-3.717 0-1.76-2.714-4.318-8.27-7.79-5.898-3.687-7.57-5.198-8.495-7.677ZM71.268 8.66c-1.906-1.02-5.412-2.36-7.79-2.978-7.645-1.985-19.224-1.368-27.888 1.487-9.772 3.22-18.65 10.54-22.354 18.433-3.807 8.112-4.117 17.226-.916 26.93 2.451 7.43 4.88 11.047 13.418 19.99 4.181 4.379 8.152 8.879 8.823 10 1.979 3.3 3.107 8.769 2.764 13.395l-.302 4.059 5.807.402c6.56.454 9.096-.083 11.669-2.474.885-.823 1.956-2.32 2.38-3.326 1.022-2.425.98-9.415-.086-14.661-1.518-7.462-5.2-17.908-9.02-25.595l-1.415-2.843h-3.47c-4.398 0-8.282-1.909-10.856-5.336-2.118-2.82-2.306-4.698-.64-6.39.958-.973 1.655-1.15 3.637-.923 3.235.37 5.598 2.281 8.913 7.208 2.625 3.9 2.733 3.987 3.802 3.022.605-.547 1.459-1.856 1.898-2.91.736-1.766.708-2.012-.35-3.155-1.72-1.86-2.05-4.404-.729-5.619 2.227-2.046 3.95.405 3.28 4.663-.331 2.103-.275 2.194 2.015 3.242 1.296.594 3.58 1.08 5.077 1.08 2.417 0 2.932-.234 4.596-2.078 2.127-2.357 2.873-5.64 2.11-9.284-.437-2.08-.66-2.298-2.797-2.728-2.526-.507-5.956-3.778-5.645-5.384.6-3.088 5.242-1.715 7.168 2.119 1.022 2.034 1.291 2.232 2.291 1.689 1.628-.885 3.31-3.945 3.312-6.027.002-1.743-.096-1.811-3.966-2.775-8.825-2.196-15.689.019-24.876 8.026-2.772 2.417-6.06 4.854-7.304 5.416-7.136 3.219-13.155 1.092-14.835-5.242-1.267-4.778 2.767-12.323 7.143-13.363.855-.203 2.562-1.348 3.794-2.544 1.233-1.197 3.753-2.886 5.601-3.753C38.79 8.903 41.783 8.576 48.69 9c.77.048 3.081-.058 5.136-.233 4.458-.38 7.396.703 11.088 4.09 2.42 2.22 5.604 7.21 5.614 8.797.003.622 2.208 1.67 7.426 3.526 8.754 3.115 9.941 3.468 9.941 2.962 0-.21-.939-2.211-2.086-4.447-2.665-5.19-9.659-12.421-14.54-15.034Zm-23.09 2.333c.373-.379.402-.748.076-.953-1.037-.65-6.594-.872-8.668-.345-2.985.758-7.189 3.031-8.75 4.731l-1.331 1.45 1.61.403c3.565.892 5.75 3.819 5.029 6.736-1.191 4.822-8.178 1.589-8.178-3.784 0-2.056-.102-2.205-1.26-1.848-5.765 1.778-9.064 10.27-5.864 15.094 1.688 2.542 3.4 3.346 7.124 3.34 4.17-.004 6.624-1.26 12.602-6.441 8.827-7.652 16.05-10.3 23.65-8.668 2.087.448 4.24.994 4.784 1.213.87.35.922.216.433-1.093-2.504-6.688-9.03-11.72-15.199-11.72-3.67 0-4.07.45-2.145 2.406 1.297 1.315 1.658 2.145 1.529 3.499-.137 1.423-.453 1.807-1.601 1.943-3.033.358-5.814-3.96-3.841-5.963Zm4.77 4.707c.395-1.045-1.16-4.079-2.324-4.532l-.182-.071c-.47-.185-.694-.273-.889-.227-.18.042-.333.199-.627.5l-.125.127c-1.085 1.103-.779 2.563.804 3.826 1.719 1.374 2.916 1.508 3.343.377Zm-19.873 8.764c3.105 0 3.3-4.437.276-6.309-.96-.594-2.437-1.08-3.284-1.082-1.381-.002-1.54.2-1.54 1.945 0 2.663 2.324 5.446 4.548 5.446Zm31.296 6.859c0-1.443-1.789-4.043-3.342-4.858-1.876-.985-1.94-.998-2.445-.484-.786.797-.314 2.309 1.166 3.74 1.722 1.662 4.621 2.667 4.621 1.602Zm-13.87 11.91c.502 0 .94-3.194.613-4.466-.182-.704-.762-1.222-1.37-1.222-.82 0-1.051.41-1.037 1.848.016 1.655 1.037 3.84 1.794 3.84Zm-7.121 3.3c-1.376-2.084-3.368-4.459-4.425-5.278-5.004-3.876-10.021-.963-6.838 3.97 2.3 3.566 9.455 6.757 12.508 5.579 1.24-.48 1.225-.534-1.245-4.272Zm-12.708 63.241c1.062 0 3.412-3.03 4.22-5.44.466-1.387.673-2.516.461-2.507-.703.028-3.89 3.086-4.868 4.672-.933 1.513-.832 3.275.188 3.275Z" fill="#fff" stroke="#fff" stroke-width="1.114"/></svg>
